svgs/sharp-solid/tally.svg

<svg xmlns="http://www.w3.org/2000/svg" viewBox="0 0 640 512"><!--! Font Awesome Pro 6.6.0 by @fontawesome - https://fontawesome.com License - https://fontawesome.com/license (Commercial License) Copyright 2024 Fonticons, Inc. --><path d="M160 32l0 32 0 214.5 64-22.6L224 64l0-32 64 0 0 32 0 169.4 64-22.6L352 64l0-32 64 0 0 32 0 124.2 64-22.6L480 64l0-32 64 0 0 32 0 79 37.4-13.2 30.2-10.7 21.3 60.4-30.2 10.7L544 210.9 544 448l0 32-64 0 0-32 0-214.5-64 22.6L416 448l0 32-64 0 0-32 0-169.4-64 22.6L288 448l0 32-64 0 0-32 0-124.2-64 22.6L160 448l0 32-64 0 0-32 0-79L58.6 382.2 28.5 392.8 7.2 332.5l30.2-10.6L96 301.1 96 64l0-32 64 0z"/></svg>

<svg xmlns="http://www.w3.org/2000/svg" viewBox="0 0 640 512"><!--! Font Awesome Pro 6.4.2 by @fontawesome - https://fontawesome.com License - https://fontawesome.com/license (Commercial License) Copyright 2023 Fonticons, Inc. --><path d="M160 32V64 278.5l64-22.6V64 32h64V64 233.4l64-22.6V64 32h64V64 188.2l64-22.6V64 32h64V64v79l37.4-13.2 30.2-10.7 21.3 60.4-30.2 10.7L544 210.9V448v32H480V448 233.5l-64 22.6V448v32H352V448 278.6l-64 22.6V448v32H224V448 323.8l-64 22.6V448v32H96V448 369L58.6 382.2 28.5 392.8 7.2 332.5l30.2-10.6L96 301.1V64 32h64z"/></svg>
